static/images/icn-dev.svg

<svg width="140" height="84" xmlns="http://www.w3.org/2000/svg"><defs><linearGradient x1="40.657%" y1="68.101%" x2="76.653%" y2="20.525%" id="a"><stop stop-color="#8385DE" offset="0%"/><stop stop-color="#300EB0" offset="100%"/></linearGradient></defs><g fill="none" fill-rule="evenodd"><path d="M36.332 23.921h58.131c.597 0 1.1.445 1.171 1.038l4.46 36.719A1.18 1.18 0 0 1 98.922 63h-58.13a1.18 1.18 0 0 1-1.172-1.038l-4.46-36.719a1.18 1.18 0 0 1 1.172-1.322z" fill="#F2F5F8"/><path d="M41.078 18h58.13c.598 0 1.1.445 1.172 1.038l4.46 36.719a1.18 1.18 0 0 1-1.172 1.322H45.537a1.18 1.18 0 0 1-1.171-1.038l-4.46-36.719A1.18 1.18 0 0 1 41.078 18z" fill="url(#a)"/><path stroke="#F2F5F8" stroke-width="2.36" transform="rotate(39 52.334 33.334)" d="M49.9635899 30.9680503L54.7048924 30.9635899 54.7004321 35.7048924"/><path fill="#F2F5F8" d="M59.9152542 34.5789474L69.4067797 34.5789474 69.6900118 36.9473684 60.1984863 36.9473684z"/></g></svg>

<?xml version="1.0" encoding="UTF-8"?>
<svg width="140px" height="84px" viewBox="0 0 140 84" version="1.1" xmlns="http://www.w3.org/2000/svg" xmlns:xlink="http://www.w3.org/1999/xlink">
    <!-- Generator: Sketch 54.1 (76490) - https://sketchapp.com -->
    <title>icn-dev</title>
    <desc>Created with Sketch.</desc>
    <defs>
        <linearGradient x1="40.6570564%" y1="68.1010714%" x2="87.7910418%" y2="31.8989286%" id="linearGradient-1">
            <stop stop-color="#8385DE" offset="0%"></stop>
            <stop stop-color="#5644C5" offset="100%"></stop>
        </linearGradient>
    </defs>
    <g id="Maquettes" stroke="none" stroke-width="1" fill="none" fill-rule="evenodd">
        <g id="Accueil-WIP" transform="translate(-173.000000, -1679.000000)">
            <g id="Front-end" transform="translate(173.000000, 1667.000000)">
                <g id="icn-dev-copy-2" transform="translate(0.000000, 12.000000)">
                    <path d="M36.3319691,23.9210526 L94.4631048,23.9210526 C95.0597833,23.9210526 95.5625664,24.3664714 95.6344988,24.9587982 L100.093662,61.6777454 C100.172227,62.3246884 99.7114658,62.9128289 99.0645228,62.9913939 C99.0173213,62.9971261 98.9698165,63 98.9222682,63 L40.7911324,63 C40.1944539,63 39.6916709,62.5545812 39.6197385,61.9622545 L35.1605751,25.2433072 C35.0820101,24.5963642 35.5427715,24.0082238 36.1897145,23.9296587 C36.236916,23.9239266 36.2844208,23.9210526 36.3319691,23.9210526 Z" id="Rectangle-Copy-8" fill="#F2F5F8"></path>
                    <path d="M41.0777318,18 L99.2088676,18 C99.8055461,18 100.308329,18.4454188 100.380262,19.0377455 L104.839425,55.7566928 C104.91799,56.4036358 104.457228,56.9917762 103.810285,57.0703413 C103.763084,57.0760734 103.715579,57.0789474 103.668031,57.0789474 L45.5368952,57.0789474 C44.9402167,57.0789474 44.4374336,56.6335286 44.3655012,56.0412018 L39.9063378,19.3222546 C39.8277728,18.6753116 40.2885342,18.0871711 40.9354772,18.0086061 C40.9826787,18.0028739 41.0301835,18 41.0777318,18 Z" id="Rectangle-Copy-9" fill="url(#linearGradient-1)"></path>
                    <polyline id="Path" stroke="#F2F5F8" stroke-width="2.36000013" transform="translate(52.334241, 33.334241) rotate(-321.000000) translate(-52.334241, -33.334241) " points="49.9635899 30.9680503 54.7048924 30.9635899 54.7004321 35.7048924"></polyline>
                    <polygon id="Rectangle" fill="#F2F5F8" points="59.9152542 34.5789474 69.4067797 34.5789474 69.6900118 36.9473684 60.1984863 36.9473684"></polygon>
                </g>
            </g>
        </g>
    </g>
</svg>
